dist/images/svg/sprite/btn-back.svg

<svg width="30" height="30" viewBox="0 0 30 30" fill="none" xmlns="http://www.w3.org/2000/svg">
<circle cx="15" cy="15" r="15" fill="#9A9A9A"/>
<path d="M22 16C22.5523 16 23 15.5523 23 15C23 14.4477 22.5523 14 22 14V16ZM7.29289 14.2929C6.90237 14.6834 6.90237 15.3166 7.29289 15.7071L13.6569 22.0711C14.0474 22.4616 14.6805 22.4616 15.0711 22.0711C15.4616 21.6805 15.4616 21.0474 15.0711 20.6569L9.41421 15L15.0711 9.34315C15.4616 8.95262 15.4616 8.31946 15.0711 7.92893C14.6805 7.53841 14.0474 7.53841 13.6569 7.92893L7.29289 14.2929ZM22 14L8 14V16H22V14Z" fill="white"/>
</svg>

<svg width="30" height="30" fill="none" xmlns="http://www.w3.org/2000/svg"><circle cx="15" cy="15" r="15" fill="#9A9A9A"/><path d="M22 16a1 1 0 1 0 0-2v2ZM7.293 14.293a1 1 0 0 0 0 1.414l6.364 6.364a1 1 0 0 0 1.414-1.414L9.414 15l5.657-5.657a1 1 0 0 0-1.414-1.414l-6.364 6.364ZM22 14H8v2h14v-2Z" fill="#fff"/></svg>
